img/1.svg

<svg width="75" height="45" viewBox="0 0 75 45" fill="none" xmlns="http://www.w3.org/2000/svg">
<path d="M47.52 18.3122V10.1842H37.344L37.472 0.200195H29.024L28.832 10.1842H19.168L19.296 0.200195H10.784L10.656 10.1842H0.0960083V18.3122H10.528L10.4 26.9522H0.0960083V35.0802H10.272L10.144 45.0002H18.656L18.784 35.0802H28.512L28.384 45.0002H36.832L36.96 35.0802H47.52V26.9522H37.088L37.216 18.3122H47.52ZM28.64 26.9522H18.912L19.04 18.3122H28.768L28.64 26.9522ZM64.132 45.0002H74.308V0.200195H64.388L64.26 1.8002C64.004 5.5122 62.276 7.2402 58.5 7.4322L53.188 7.6882V15.8802H64.132V45.0002Z" fill="#050038"/>
</svg>

<svg width="75" height="45" fill="none" xmlns="http://www.w3.org/2000/svg"><path d="M47.52 18.312v-8.128H37.344L37.472.2h-8.448l-.192 9.984h-9.664L19.296.2h-8.512l-.128 9.984H.096v8.128h10.432l-.128 8.64H.096v8.128h10.176L10.144 45h8.512l.128-9.92h9.728L28.384 45h8.448l.128-9.92h10.56v-8.128H37.088l.128-8.64H47.52zm-18.88 8.64h-9.728l.128-8.64h9.728l-.128 8.64zM64.132 45h10.176V.2h-9.92l-.128 1.6c-.256 3.712-1.984 5.44-5.76 5.632l-5.312.256v8.192h10.944V45z" fill="#050038"/></svg>
